X:1
T:Sheep May Safely Graze
C:Johann Sebastian Bach
M:4/4
L:1/8
Q:1/4=60
K:F
C2 | CDEFGFED | C4E4 | F2G2A2G2 | F8 | G2A2=B2c2 | d2c2=B2A2 | G4F4 | E4D2C2 | F2E2D2C2 | D4E2F2 | G2F2E2D2 | C8 |]
